tipitek/img/Chart.svg

<svg width="32" height="32" viewBox="0 0 32 32" fill="none" xmlns="http://www.w3.org/2000/svg">
<path fill-rule="evenodd" clip-rule="evenodd" d="M21.9173 1.33337C26.7533 1.33337 30.0026 4.72804 30.0026 9.78004V21.5534C30.0026 26.6054 26.7533 30 21.9173 30H9.42127C4.58527 30 1.33594 26.6054 1.33594 21.5534V9.78004C1.33594 4.72804 4.58527 1.33337 9.42127 1.33337H21.9173ZM21.9173 3.33337H9.42127C5.72527 3.33337 3.33594 5.86271 3.33594 9.78004V21.5534C3.33594 25.4707 5.72527 28 9.42127 28H21.9173C25.6146 28 28.0026 25.4707 28.0026 21.5534V9.78004C28.0026 5.86271 25.6146 3.33337 21.9173 3.33337ZM9.4974 12.27C10.0494 12.27 10.4974 12.718 10.4974 13.27V22.4167C10.4974 22.9687 10.0494 23.4167 9.4974 23.4167C8.9454 23.4167 8.4974 22.9687 8.4974 22.4167V13.27C8.4974 12.718 8.9454 12.27 9.4974 12.27ZM15.7201 7.89137C16.2721 7.89137 16.7201 8.33937 16.7201 8.89137V22.4154C16.7201 22.9674 16.2721 23.4154 15.7201 23.4154C15.1681 23.4154 14.7201 22.9674 14.7201 22.4154V8.89137C14.7201 8.33937 15.1681 7.89137 15.7201 7.89137ZM21.8405 17.1034C22.3925 17.1034 22.8405 17.5514 22.8405 18.1034V22.4154C22.8405 22.9674 22.3925 23.4154 21.8405 23.4154C21.2885 23.4154 20.8405 22.9674 20.8405 22.4154V18.1034C20.8405 17.5514 21.2885 17.1034 21.8405 17.1034Z" fill="#30CBFF"/>
</svg>

<svg width="32" height="32" fill="none" xmlns="http://www.w3.org/2000/svg"><path fill-rule="evenodd" clip-rule="evenodd" d="M21.917 1.333c4.836 0 8.086 3.395 8.086 8.447v11.773c0 5.052-3.25 8.447-8.086 8.447H9.421c-4.836 0-8.085-3.395-8.085-8.447V9.78c0-5.052 3.25-8.447 8.085-8.447h12.496zm0 2H9.421c-3.696 0-6.085 2.53-6.085 6.447v11.773C3.336 25.471 5.726 28 9.42 28h12.496c3.698 0 6.086-2.53 6.086-6.447V9.78c0-3.917-2.388-6.447-6.086-6.447zM9.497 12.27a1 1 0 0 1 1 1v9.147a1 1 0 0 1-2 0V13.27a1 1 0 0 1 1-1zm6.223-4.379a1 1 0 0 1 1 1v13.524a1 1 0 0 1-2 0V8.891a1 1 0 0 1 1-1zm6.12 9.212a1 1 0 0 1 1 1v4.312a1 1 0 0 1-2 0v-4.312a1 1 0 0 1 1-1z" fill="#30CBFF"/></svg>
